packages/core/src/svgs/lbt.svg

<svg width="24" height="24" viewBox="0 0 24 24" fill="none" xmlns="http://www.w3.org/2000/svg">
<g clip-path="url(#clip0_31_13029)">
<path d="M0 0H24V24H0V0Z" fill="#000066"/>
<path d="M5.92296 6.85701H15.763C16.5692 6.8513 17.3448 7.16584 17.9194 7.73155C18.4939 8.29726 18.8205 9.06788 18.8272 9.87415C18.8272 10.6584 18.433 11.3527 17.8287 11.777C18.1433 11.9872 18.4016 12.2714 18.581 12.6047C18.7603 12.9379 18.8551 13.31 18.8572 13.6884C18.8415 14.5001 18.5065 15.2729 17.9249 15.8392C17.3433 16.4056 16.5619 16.7199 15.7501 16.7142H13.7144V14.9999H15.3858C16.0715 14.9999 16.7144 14.4727 16.7144 13.7999C16.7144 13.2856 15.9172 12.857 15.3858 12.857H10.5001L10.8087 12.0899L11.3058 10.7142H15.7544C16.2858 10.7142 16.7144 10.4184 16.7144 9.89987C16.7144 9.22272 16.1572 8.5713 15.4715 8.5713H5.17725L5.92725 6.85701H5.92296Z" fill="white"/>
<path d="M13.6714 6H14.5714L14.1857 6.85714H13.2857L13.6714 6ZM8.52854 16.7143H9.42854L9.04282 17.5714H8.14282L8.52854 16.7143ZM14.9571 6H15.8571L15.4714 6.85714H14.5714L14.9571 6ZM9.81425 16.7143H10.7143L10.3285 17.5714H9.42854L9.81425 16.7143Z" fill="white"/>
<path d="M10.2858 9.85693H8.14291L5.17719 16.2341C5.15344 16.2857 5.14309 16.3425 5.14707 16.3993C5.15106 16.456 5.16927 16.5108 5.20001 16.5586C5.23076 16.6064 5.27305 16.6457 5.32299 16.6729C5.37293 16.7001 5.42891 16.7142 5.48577 16.7141H12.8572V14.9998H8.67005C8.61284 15.0007 8.55633 14.9871 8.50581 14.9602C8.45528 14.9333 8.4124 14.8941 8.38115 14.8461C8.34991 14.7982 8.33132 14.7431 8.32713 14.686C8.32294 14.629 8.33328 14.5718 8.35719 14.5198L10.2858 9.85693Z" fill="white"/>
</g>
<defs>
<clipPath id="clip0_31_13029">
<rect width="24" height="24" fill="white"/>
</clipPath>
</defs>
</svg>

<svg xmlns="http://www.w3.org/2000/svg" width="24" height="24" fill="none" viewBox="0 0 24 24"><g clip-path="url(#a)"><path fill="#006" d="M0 0h24v24H0z"/><path fill="#fff" d="M5.923 6.857h9.84a3.043 3.043 0 0 1 3.064 3.017c0 .784-.394 1.479-.998 1.903a2.32 2.32 0 0 1 1.028 1.911 3.085 3.085 0 0 1-3.107 3.026h-2.036V15h1.672c.686 0 1.328-.527 1.328-1.2 0-.514-.797-.943-1.328-.943H10.5l.309-.767.497-1.376h4.448c.532 0 .96-.296.96-.814 0-.677-.557-1.329-1.242-1.329H5.177l.75-1.714z"/><path fill="#fff" d="M13.671 6h.9l-.385.857h-.9zM8.53 16.714h.9l-.386.857h-.9zM14.957 6h.9l-.386.857h-.9zM9.814 16.714h.9l-.386.857h-.9z"/><path fill="#fff" d="M10.286 9.857H8.143l-2.966 6.377a.338.338 0 0 0 .309.48h7.371V15H8.67a.338.338 0 0 1-.313-.48z"/></g><defs><clipPath id="a"><path fill="#fff" d="M0 0h24v24H0z"/></clipPath></defs></svg>
